packages/dnb-ui-lib/assets/icons/train_medium.svg

<svg width="24" height="24" viewBox="0 0 24 24" fill="none" xmlns="http://www.w3.org/2000/svg">
<path d="M2.159 18.375C1.78531 18.375 1.42693 18.2266 1.16269 17.9623C0.898448 17.6981 0.75 17.3397 0.75 16.966V3C0.75 2.73478 0.855357 2.48043 1.04289 2.29289C1.23043 2.10536 1.48478 2 1.75 2H11M11 2V10M11 2H12.5M11 10H21.25C21.7804 10 22.2891 10.2107 22.6642 10.5858C23.0393 10.9609 23.25 11.4696 23.25 12V16.375C23.25 16.9054 23.0393 17.4141 22.6642 17.7892C22.2891 18.1643 21.7804 18.375 21.25 18.375H20.841M11 10H4.5V5.5H11M7 19.25C7 20.6307 5.88071 21.75 4.5 21.75C3.11929 21.75 2 20.6307 2 19.25C2 17.8693 3.11929 16.75 4.5 16.75C5.88071 16.75 7 17.8693 7 19.25ZM14 19.25C14 20.6307 12.8807 21.75 11.5 21.75C10.1193 21.75 9 20.6307 9 19.25C9 17.8693 10.1193 16.75 11.5 16.75C12.8807 16.75 14 17.8693 14 19.25ZM21 19.25C21 20.6307 19.8807 21.75 18.5 21.75C17.1193 21.75 16 20.6307 16 19.25C16 17.8693 17.1193 16.75 18.5 16.75C19.8807 16.75 21 17.8693 21 19.25Z" stroke="black" stroke-width="1.5" stroke-linecap="round" stroke-linejoin="round"/>
</svg>

<svg width="24" height="24" viewBox="0 0 24 24" fill="none" xmlns="http://www.w3.org/2000/svg"><path d="M2.159 18.375A1.409 1.409 0 01.75 16.966V3a1 1 0 011-1H11m0 0v8m0-8h1.5M11 10h10.25a2 2 0 012 2v4.375a2 2 0 01-2 2h-.409M11 10H4.5V5.5H11M7 19.25a2.5 2.5 0 11-5 0 2.5 2.5 0 015 0zm7 0a2.5 2.5 0 11-5 0 2.5 2.5 0 015 0zm7 0a2.5 2.5 0 11-5 0 2.5 2.5 0 015 0z" stroke="#000" stroke-width="1.5" stroke-linecap="round" stroke-linejoin="round"/></svg>
